X: 20
T: Patsy Geary's
T: An Crú Capaill
R: jig
M: 6/8
K: Ador
L: 1/8
   "Bm" f3 f2e   | fdB d2 A          | "D" d3       dfa  | "G" bge "Em" efg     |
   "Bm" fge f2e  | fdB d2 e          | "D" fga "G"  bge  | "D" dBA "D7" AB/c/d :|
|: "A"  e3 efe   | "D"dBA "A/E" A2 d | "G" BAB "Em" g2 e | "D" fdB "D7" AB/c/d  |
   "A"  e3 efe   | "D"dBA "A/E" A2 g | "D" fga "G" bge   | "D" dBA "D7" AB/c/d :|

